X:1
T:Der Blusenkauf
T:Otto Reutter 1870-1931
L:1/8
M:3/4
K:C
V:1 treble nm="Violine" snm="Vl."
V:1
 G ^F G | A2 G2 C D | E3 E ^D E | F2 E2 C E | D3 G ^F E | D3 D E ^F | G3 G A B | c2 A2 E ^F | %8
w: 1.~Wenn Frauen was|kau- fen, das geht|flink! Ich weiß, wie's|mei- nem Freund er-|ging, der, jung- ver-|mählt, wollt in der|Früh' mal ins Bü-|ro, da sag- te|
w: 2.~Nun geht sie|rein „'nen Au- gen-|blick“. Ihr Mann, sehr|hei- ter, bleibt zu-|rück. Er freut sich|'s Wet- ter ist sehr|schön, sieht Kin- der,|die zur Schu- le|
w: 3.~Nun packt man|vi- o- let- te|aus. Ihr Mann ge-|dul- dig, steht vorm|Haus, denkt: „Ziem- lich|lan- ge währt so'n|Kauf!" Geht auf und|ab und ab und|
w: 4.~Nun packt man|al- le gel- ben|aus. Ihr Mann wird|hung- rig vor dem|Haus. Der Mit- tag|naht, die Son- ne|sticht, die Kin- der|komm'n vom Un- ter-|
w: 5.~Nun packt man|al- le grü- nen|aus. Ihr Mann wird|matt und seufzt vorm|Haus: „Gern kauft' ich|'ne Zi- gar- re|mir, doch's Port- mon-|nee das ist bei|
w: 6.~Nun packt man|al- le hel- len|aus. Da gibt's ein|Un- ge- wit- ter|drauß'. Es reg- net|bis zum A- bend-|rot. Ihm fehlt ein|Schirm und's A- bend-|
w: 7.~Nun packt man|die ka- rier- ten|aus und er stöhnt,|frei nach Goe- the,|drauß': „Was e- wig|weib- lich, zieht uns|an. Das Weib, das|zieht sich e- wig|
w: 8.~Nun packt man|die ge- streif- ten|aus. Ihr Mann, der|bangt und rö- chelt|drauß': „Ein Au- gen-|blick!“, Das war ihr|Wort! Dann fällt er|um, man trägt ihn|
 G4 z G |[M:4/8] A G F D | C E E z/ E/ | D F F F | E G G z |[M:3/4] z3 G ^F E | D3 D E ^F | %15
w: sie: „Lass|mich ein Stück- chen|mit dir gehn." Dann|blieb sie vor 'nem|La- den stehn.|„Dein Port- mon-|nee! Bin gleich zu-|
w: gehn und|sie sagt drin- nen|zur Mam- sell: „'ne|blau- e Blus- e,|a- ber schnell!“|Nun schleppt man|al- le blau- en|
w: auf. Und|sie sagt drin- nen:|„Das ist nett! Wie|kam ich nur auf|vi- o- lett?|Da fällt mir|ein, Frau Dok- tor|
w: richt. Und|sie sucht drinn'n und|sagt als- dann: „Was|geht Frau Dok- tor|Schmidt mich an!|Wie kam ich|auf 'ne gel- be|
w: ihr.“ Und|sie sagt drinn'n: „Beim|Son- nen- schein, da|wird das Grün zu|dun- kel sein.“|Da schaut er|rein. „Mein Port- mon-|
w: brot. Und|sie sagt drin- nen|zur Mam- sell: „So'n|Wet- ter heut' und|da- zu hell?|Und ü- ber-|haupt, wir ha- ben|
w: an.“ Und|sie probt drinn‘n und|sagt ent- setzt: „Was,|Num- mer vier- und-|vier- zig jetzt?|Nicht zwei- und-|vier- zig, schlank und|
w: fort. Da|kommt sie mit 'ner|ro- ten raus. „Hier|bin ich schon." ruft|froh sie aus.|Und schreit: „Mein|Mann! Mein einz'- ges|
 G3 G ^F E | D2 c2 E ^F | G4 z G |[M:4/8] c B A G | B A z A | G E F B, | D C |] %22
w: rück. Es dau- ert|nur 'nen Au- gen-|blick. Bleib'|drau- ßen!“ sprach Frau|Su- se, „Ich|kauf' nur schnell 'ne|Blu- se.“|
w: rein, und nach 'ner|Stun- de sagt sie:|„Nein! Ich|fin- de kei- ne|net- te, ich|möcht' 'ne vi- o-|let- te.“|
w: Schmidt geht im- mer|mit der Mo- de|mit, und|die trägt jetzt 'ne|gel- be. Ach,|geb'n Sie mir die-|sel- be.“|
w: nur? Es wird ja|Früh- ling, die Na-|tur zeigt|fro- he Hoff- nungs-|mie- ne! Ach,|geb'n Sie mir 'ne|grü- ne.“|
w: nee?“ sie sagt: „'nen|Au- gen- blick noch!|Geh! Ich|bin ja gleich zur|Stel- le. Ach,|geb'n Sie mir 'ne|hel- le.“|
w: bald A- pril, da|ist's oft nass und|kalt. Dann|bin ich die Bla-|mier- te. Ach,|geb'n Sie 'ne ka-|rier- te.“|
w: schick? Dann nichts ka-|rier- tes, das macht|dick“ Ihr|Blick zur Tail- le|schweif- te. „Dann|geb'n Sie 'ne ge-|streif- te.“|
w: Glück! Gott, ist er|tot? Ein'n Au- gen-|blick!“ Und|in den La- den|starrt se: „Dann|geb'n Sie mir 'ne|schwar- ze.“|

